images/APItidtabellexempel.svg

<svg xmlns="http://www.w3.org/2000/svg" xmlns:xlink="http://www.w3.org/1999/xlink" width="1579.39" height="411.374" viewBox="0 0 1579.39 411.374">
  <defs>
    <style>
      @import url('https://fonts.googleapis.com/css2?family=Quicksand');
    </style>
    <clipPath id="clip-path">
      <rect id="Rectangle_28" data-name="Rectangle 28" width="1579.39" height="411.374" transform="translate(-261 19.75)"/>
    </clipPath>
    <clipPath id="clip-path-2">
      <rect id="Rectangle_22" data-name="Rectangle 22" width="68" height="54.473" transform="translate(604.176 212.382)"/>
    </clipPath>
    <clipPath id="clip-path-3">
      <rect id="Rectangle_23" data-name="Rectangle 23" width="304" height="42.951" transform="translate(157.204 372.139)"/>
    </clipPath>
    <clipPath id="clip-path-4">
      <rect id="Rectangle_24" data-name="Rectangle 24" width="253" height="42.951" transform="translate(836.227 329.183)"/>
    </clipPath>
    <clipPath id="clip-path-5">
      <rect id="Rectangle_27" data-name="Rectangle 27" width="243" height="42.951" transform="translate(187.27 41.572)"/>
    </clipPath>
  </defs>
  <g id="APItidtabellexempel" transform="translate(261 -19.75)" clip-path="url(#clip-path)">
    <path id="Path_30" data-name="Path 30" d="M1149.36,113.96h162.87a6.162,6.162,0,0,1,6.16,6.158V420.132a6.162,6.162,0,0,1-6.16,6.158H1149.36a6.162,6.162,0,0,1-6.16-6.158V120.118A6.162,6.162,0,0,1,1149.36,113.96Z" fill="#6e8a95"/>
    <rect id="Rectangle_17" data-name="Rectangle 17" width="129.86" height="22.987" transform="translate(1166.44 139.817)" fill="#485d65"/>
    <rect id="Rectangle_18" data-name="Rectangle 18" width="129.86" height="22.987" transform="translate(1166.44 177.796)" fill="#485d65"/>
    <rect id="Rectangle_19" data-name="Rectangle 19" width="129.86" height="22.987" transform="translate(1166.44 215.775)" fill="#485d65"/>
    <rect id="Rectangle_20" data-name="Rectangle 20" width="129.86" height="22.987" transform="translate(1167.55 253.754)" fill="#485d65"/>
    <ellipse id="Ellipse_9" data-name="Ellipse 9" cx="7.496" cy="8.192" rx="7.496" ry="8.192" transform="translate(1277.934 142.725)" fill="#77ee2d"/>
    <ellipse id="Ellipse_10" data-name="Ellipse 10" cx="7.496" cy="8.192" rx="7.496" ry="8.192" transform="translate(1277.934 181.098)" fill="#77ee2d"/>
    <ellipse id="Ellipse_11" data-name="Ellipse 11" cx="7.496" cy="8.192" rx="7.496" ry="8.192" transform="translate(1277.934 219.077)" fill="#77ee2d"/>
    <ellipse id="Ellipse_12" data-name="Ellipse 12" cx="7.496" cy="8.192" rx="7.496" ry="8.192" transform="translate(1277.934 257.056)" fill="#77ee2d"/>
    <ellipse id="Ellipse_13" data-name="Ellipse 13" cx="64.261" cy="81.587" rx="64.261" ry="81.587" transform="translate(571.104 139.553)" fill="#90b8cc"/>
    <path id="Path_31" data-name="Path 31" d="M508.37,213.191c-.655-26.81,20.274-49.115,46.708-49.78s48.428,20.563,49.083,47.372-20.273,49.115-46.707,49.78S509.026,240,508.37,213.191Z" fill="#90b8cc"/>
    <path id="Path_32" data-name="Path 32" d="M653.743,200.01c-.656-26.809,20.273-49.115,46.707-49.779s48.428,20.562,49.084,47.371-20.274,49.115-46.708,49.78S654.4,226.82,653.743,200.01Z" fill="#90b8cc"/>
    <path id="Path_33" data-name="Path 33" d="M475.384,268.661c-.7-28.741,31.206-52.891,71.211-53.9s73.056,21.512,73.759,50.252-31.206,52.891-71.212,53.9S476.087,297.4,475.384,268.661Z" fill="#90b8cc"/>
    <path id="Path_34" data-name="Path 34" d="M699.757,281.859c-.533-21.784,22.163-40.051,50.652-40.767s52.049,16.388,52.582,38.172-22.164,40.051-50.652,40.767S700.29,303.643,699.757,281.859Z" fill="#90b8cc"/>
    <path id="Path_35" data-name="Path 35" d="M649.018,249.049c-6.908-29.147,19.152-60.525,58.158-70.027s76.282,6.447,83.189,35.594-19.152,60.526-58.158,70.028S655.925,278.2,649.018,249.049Z" fill="#90b8cc"/>
    <rect id="Rectangle_21" data-name="Rectangle 21" width="232.096" height="48.493" transform="translate(532.548 270.241)" fill="#90b8cc"/>
    <g id="Group_8" data-name="Group 8" transform="translate(9.732 -0.016)" clip-path="url(#clip-path-2)">
      <text id="API" transform="translate(604.176 255.136)" font-size="40" font-family="Quicksand"><tspan x="0" y="0">API</tspan></text>
    </g>
    <path id="Path_36" data-name="Path 36" d="M145.043,312.31,134.1,333.531l-23.142-25.365Z"/>
    <g id="Group_9" data-name="Group 9" clip-path="url(#clip-path-3)">
      <text id="Returnerar_tidtabell" data-name="Returnerar tidtabell" transform="translate(157.204 404.205)" font-size="30" font-family="Quicksand-Regular, Quicksand"><tspan x="0" y="0">Returnerar tidtabell</tspan></text>
    </g>
    <g id="Group_10" data-name="Group 10" clip-path="url(#clip-path-4)">
      <text id="Hämtar_tidtabell" data-name="Hämtar tidtabell" transform="translate(836.227 361.249)" font-size="30" font-family="Quicksand-Regular, Quicksand"><tspan x="0" y="0">Hämtar tidtabell</tspan></text>
    </g>
    <path id="Path_37" data-name="Path 37" d="M-117.893,199.36c-11.385,11.581-69.217-.286-76.3-.286-7.142,0-13.886-9.77-13.886-18.257s9.2-14.472,9.2-31.016-4.761-22.762,11.9-41.522,0-27.694,22.217-52.707q22.218-25.013,44.436,0l.416,11.234-.416-11.234a5.739,5.739,0,0,1,.176-4.6l.24,15.83,2.011,132.554L-119.9,66.806Z" fill="#f90"/>
    <path id="Path_38" data-name="Path 38" d="M-120.117,201.12c11.078,10.415,60.419-6.986,66.6-7.672,6.236-.692,11.168-11.062,10.336-19.5-5.368-8.824-13.985-13.877-11.08-29.956-.617-16.512,2.947-23.14-14.467-40.145C-85.115,86.8-71.439,76.3-93.294,53.574q-21.856-22.726-38.805,4.3l.738,11.213-.738-11.213a6.452,6.452,0,0,0-.6-4.554l1.343,15.767,11.244,132.03L-131.361,69.09Z" fill="#f90"/>
    <g id="Group_11" data-name="Group 11">
      <path id="Path_39" data-name="Path 39" d="M-159.506,181.16h80.812A40.554,40.554,0,0,1-38.16,221.694V385.226A40.554,40.554,0,0,1-78.694,425.76h-80.812a40.554,40.554,0,0,1-40.534-40.534V221.694A40.554,40.554,0,0,1-159.506,181.16Z" fill="#140388"/>
      <path id="Path_40" data-name="Path 40" d="M-93.733,181.06c.009.28.012.561.012.844,0,17.97-12.188,32.56-27.2,32.56s-27.2-14.59-27.2-32.56c0-.283,0-.564.012-.844Z" fill="#eccbb6"/>
    </g>
    <path id="Path_41" data-name="Path 41" d="M49.883,213.538c2.536-10.037,11.079-16.344,19.066-14.075s12.411,12.261,9.875,22.3S67.744,238.1,59.758,235.836,47.346,223.575,49.883,213.538Z" fill="#eccbb6"/>
    <path id="Path_42" data-name="Path 42" d="M-260.285,408.364c2.536-10.037,11.08-16.344,19.066-14.075s12.412,12.261,9.876,22.3-11.08,16.344-19.067,14.075S-262.821,418.4-260.285,408.364Z" fill="#eccbb6"/>
    <path id="Path_43" data-name="Path 43" d="M-252.472,396.516l21.362,5.3,34.679-85.314L-198.1,214.414Z" fill="#140388"/>
    <path id="Path_44" data-name="Path 44" d="M-41.07,208.971c17.176,23.718,32.854,49.613,46.816,55.381,2.08.86,5.348.648,9.78-.662l34.748-42.363,19.767,11.694q-37.662,63.765-54.307,64.427c-16.646.662-40.575-6.84-51.6-18.092Q-46.9,268.1-41.07,208.971Z" fill="#140388"/>
    <ellipse id="Ellipse_14" data-name="Ellipse 14" cx="42.447" cy="54.498" rx="42.447" ry="54.498" transform="translate(-162.585 66.437)" fill="#eccbb6"/>
    <rect id="Rectangle_25" data-name="Rectangle 25" width="30.587" height="30.283" transform="translate(-134.391 158.51)" fill="#eccbb6"/>
    <g id="Group_12" data-name="Group 12">
      <path id="Path_45" data-name="Path 45" d="M86.553,144.1l25.872,15.84a3.376,3.376,0,0,1,1.189,4.443L83.229,220.185a2.984,2.984,0,0,1-4.222,1.13l-25.872-15.84a3.376,3.376,0,0,1-1.189-4.443l30.385-55.807A2.985,2.985,0,0,1,86.553,144.1Z" fill="#a2a2a2"/>
      <path id="Path_46" data-name="Path 46" d="M95.874,154.281l4.7,2.879a1.117,1.117,0,0,1,.393,1.47l-.047.086a.986.986,0,0,1-1.4.373l-4.7-2.879a1.117,1.117,0,0,1-.393-1.47l.047-.086A.986.986,0,0,1,95.874,154.281Z" fill="#575757"/>
      <path id="Path_47" data-name="Path 47" d="M89.82,151.5a1.114,1.114,0,0,1,1.55-.5,1.26,1.26,0,0,1,.368,1.673,1.115,1.115,0,0,1-1.55.5A1.259,1.259,0,0,1,89.82,151.5Z" fill="#575757"/>
      <path id="Path_48" data-name="Path 48" d="M66,207.788a2.807,2.807,0,0,1,3.9-1.254,3.172,3.172,0,0,1,.927,4.212,2.806,2.806,0,0,1-3.9,1.254A3.172,3.172,0,0,1,66,207.788Z" fill="#575757"/>
      <rect id="Rectangle_26" data-name="Rectangle 26" width="31.369" height="53.768" transform="translate(81.911 150.541) rotate(29.316)" fill="#575757"/>
    </g>
    <ellipse id="Ellipse_15" data-name="Ellipse 15" cx="3.68" cy="3.902" rx="3.68" ry="3.902" transform="translate(-127.36 113.29)" fill="#575757"/>
    <ellipse id="Ellipse_16" data-name="Ellipse 16" cx="3.614" cy="3.832" rx="3.614" ry="3.832" transform="translate(-97.004 113.374)" fill="#575757"/>
    <path id="Path_49" data-name="Path 49" d="M-117.9,145.459a10.118,10.118,0,0,0,9.815,9.414,10.118,10.118,0,0,0,9.816-9.414Z" fill="#fb9595"/>
    <g id="Group_13" data-name="Group 13">
      <path id="Path_50" data-name="Path 50" d="M-100.94,132.367c-.182,2.238-1.708,3.99-3.563,3.99s-3.382-1.752-3.563-3.99Z" fill="#d9a485"/>
    </g>
    <path id="Path_51" data-name="Path 51" d="M-169.448,127.734q41.615-30.89,48.273-46.776t15.259-15.3l-31.073-9.414q-25.8,23.829-29.962,39.715A88.181,88.181,0,0,0-169.448,127.734Z" fill="#f90"/>
    <path id="Path_52" data-name="Path 52" d="M462.121,318.742q-144.93,77-328.7,2" fill="none" stroke="#000" stroke-linecap="square" stroke-miterlimit="3" stroke-width="3"/>
    <path id="Path_53" data-name="Path 53" d="M470.345,145.765l10.942-21.221,23.143,25.364Z"/>
    <path id="Path_54" data-name="Path 54" d="M871.31,292.589v23.876l-32.194-11.938Z"/>
    <g id="Group_14" data-name="Group 14" clip-path="url(#clip-path-5)">
      <text id="När_går_bussen_" data-name="När går bussen?" transform="translate(187.27 73.637)" font-size="30" font-family="Quicksand-Regular, Quicksand"><tspan x="0" y="0">När går bussen?</tspan></text>
    </g>
    <path id="Path_55" data-name="Path 55" d="M148.485,139.332q147.038-77,333.479-2" fill="none" stroke="#000" stroke-linecap="square" stroke-miterlimit="3" stroke-width="3"/>
    <g id="Group_15" data-name="Group 15">
      <path id="Path_56" data-name="Path 56" d="M938.227,204.409q146.173-6.672,147.493,51.319.57,25.008-39.05,39.062-52.265,18.536-173.943,9.119" fill="none" stroke="#000" stroke-linecap="square" stroke-miterlimit="3" stroke-width="3"/>
    </g>
  </g>
</svg>

<?xml version="1.0" encoding="UTF-8" standalone="no"?><!-- Generator: Gravit.io --><svg xmlns="http://www.w3.org/2000/svg" xmlns:xlink="http://www.w3.org/1999/xlink" style="isolation:isolate" viewBox="-261 43.065 1627.667 388.059" width="1627.667pt" height="388.059pt"><defs><clipPath id="_clipPath_HdbI7RYmgPZJi9GSehtzBE2PHoVlveV6"><rect x="-261" y="43.065" width="1627.667" height="388.059"/></clipPath></defs><g clip-path="url(#_clipPath_HdbI7RYmgPZJi9GSehtzBE2PHoVlveV6)"><path d="M 1197.628 107.55 L 1360.512 107.55 C 1363.91 107.55 1366.67 110.309 1366.67 113.708 L 1366.67 413.722 C 1366.67 417.121 1363.91 419.88 1360.512 419.88 L 1197.628 419.88 C 1194.23 419.88 1191.47 417.121 1191.47 413.722 L 1191.47 113.708 C 1191.47 110.309 1194.23 107.55 1197.628 107.55 Z" style="stroke:none;fill:#6E8A95;stroke-miterlimit:10;"/><rect x="1214.716" y="133.408" width="129.86" height="22.987" transform="matrix(1,0,0,1,0,0)" fill="rgb(72,93,101)"/><rect x="1214.716" y="171.387" width="129.86" height="22.987" transform="matrix(1,0,0,1,0,0)" fill="rgb(72,93,101)"/><rect x="1214.716" y="209.366" width="129.86" height="22.987" transform="matrix(1,0,0,1,0,0)" fill="rgb(72,93,101)"/><rect x="1215.824" y="247.345" width="129.86" height="22.987" transform="matrix(1,0,0,1,0,0)" fill="rgb(72,93,101)"/><ellipse vector-effect="non-scaling-stroke" cx="1333.698614985667" cy="144.50775131516284" rx="7.496168981814208" ry="8.192484757440297" fill="rgb(119,238,45)"/><ellipse vector-effect="non-scaling-stroke" cx="1333.698614985667" cy="182.88068361711146" rx="7.496168981814208" ry="8.192484757440297" fill="rgb(119,238,45)"/><ellipse vector-effect="non-scaling-stroke" cx="1333.698614985667" cy="220.85989206750116" rx="7.496168981814208" ry="8.192484757440297" fill="rgb(119,238,45)"/><ellipse vector-effect="non-scaling-stroke" cx="1333.698614985667" cy="258.8391005178903" rx="7.496168981814208" ry="8.192484757440297" fill="rgb(119,238,45)"/><ellipse vector-effect="non-scaling-stroke" cx="635.3654030621041" cy="221.13979475838323" rx="64.26099632348803" ry="81.5867644553532" fill="rgb(144,184,204)"/><path d=" M 508.37 213.191 C 507.715 186.381 528.644 164.076 555.078 163.411 C 581.512 162.747 603.506 183.974 604.161 210.783 C 604.817 237.593 583.888 259.898 557.454 260.563 C 531.02 261.227 509.026 240.001 508.37 213.191 Z " fill="rgb(144,184,204)"/><path d=" M 653.743 200.01 C 653.087 173.201 674.016 150.895 700.45 150.231 C 726.884 149.566 748.878 170.793 749.534 197.602 C 750.189 224.412 729.26 246.717 702.826 247.382 C 676.392 248.046 654.398 226.82 653.743 200.01 Z " fill="rgb(144,184,204)"/><path d=" M 475.384 268.661 C 474.681 239.92 506.59 215.77 546.595 214.764 C 586.601 213.759 619.651 236.276 620.354 265.016 C 621.057 293.757 589.148 317.907 549.142 318.913 C 509.137 319.919 476.087 297.401 475.384 268.661 Z " fill="rgb(144,184,204)"/><path d=" M 699.757 281.859 C 699.224 260.075 721.92 241.808 750.409 241.092 C 778.897 240.376 802.458 257.48 802.991 279.264 C 803.524 301.048 780.827 319.315 752.339 320.031 C 723.851 320.747 700.29 303.643 699.757 281.859 Z " fill="rgb(144,184,204)"/><path d=" M 649.018 249.049 C 642.11 219.902 668.17 188.524 707.176 179.022 C 746.182 169.519 783.458 185.469 790.365 214.616 C 797.273 243.764 771.213 275.142 732.207 284.644 C 693.201 294.146 655.925 278.197 649.018 249.049 Z " fill="rgb(144,184,204)"/><rect x="532.548" y="270.241" width="232.096" height="48.493" transform="matrix(1,0,0,1,0,0)" fill="rgb(144,184,204)"/><g clip-path="url(#_clipPath_vl764PbvWascUibQsWDb4KpWd47wdPVc)"><text transform="matrix(1,0,0,1,604.176,255.136)" style="font-family:'Open Sans';font-weight:700;font-size:40px;font-style:normal;fill:#000000;stroke:none;">API</text></g><defs><clipPath id="_clipPath_vl764PbvWascUibQsWDb4KpWd47wdPVc"><rect x="0" y="0" width="68" height="54.473" transform="matrix(1,0,0,1,604.176,212.382)"/></clipPath></defs><rect x="166" y="186" width="239.459" height="29.183" transform="matrix(1,0,0,1,0,0)" fill="rgb(185,185,185)"/><rect x="174.604" y="265.075" width="239.459" height="29.183" transform="matrix(1,0,0,1,0,0)" fill="rgb(185,185,185)"/><polygon points="393.097,229.924,393.097,170.883,447.621,200.404" fill="rgb(185,185,185)"/><polygon points="897.262,258.104,897.262,317.146,842.738,287.625" fill="rgb(185,185,185)"/><polygon points="175.62,247.918,175.62,310.5,120.355,279.209" fill="rgb(185,185,185)"/><g clip-path="url(#_clipPath_jv2s6VbWcj1l4kmhFFE2zPdcMg9n5Fjv)"><text transform="matrix(1,0,0,1,200.326,208.136)" style="font-family:'Open Sans';font-weight:700;font-size:20px;font-style:normal;fill:#000000;stroke:none;">När går bussen?</text></g><defs><clipPath id="_clipPath_jv2s6VbWcj1l4kmhFFE2zPdcMg9n5Fjv"><rect x="0" y="0" width="163" height="27.236" transform="matrix(1,0,0,1,200.326,186.759)"/></clipPath></defs><g clip-path="url(#_clipPath_BQDekaiC3w30bhjOciMlmkEMKO28gnjX)"><text transform="matrix(1,0,0,1,190.962,288.092)" style="font-family:'open sans';font-weight:700;font-size:30px;font-style:normal;fill:#000000;stroke:none;">Returnerar tidtabell</text></g><defs><clipPath id="_clipPath_BQDekaiC3w30bhjOciMlmkEMKO28gnjX"><rect x="0" y="0" width="204" height="27.236" transform="matrix(1,0,0,1,190.962,266.715)"/></clipPath></defs><path d=" M -117.893 199.36 C -129.278 210.941 -187.11 199.074 -194.194 199.074 C -201.336 199.074 -208.08 189.304 -208.08 180.817 C -208.08 172.331 -198.876 166.345 -198.876 149.801 C -198.876 133.257 -203.637 127.039 -186.973 108.279 C -170.31 89.519 -186.973 80.585 -164.756 55.572 Q -142.538 30.559 -120.32 55.572 L -119.904 66.806 L -120.32 55.572 C -120.906 54.282 -120.85 52.666 -120.144 50.976 L -119.904 66.806 L -117.893 199.36 L -119.904 66.806 L -117.893 199.36 Z " fill="rgb(255,153,0)"/><path d=" M -120.117 201.12 C -109.039 211.535 -59.698 194.134 -53.512 193.448 C -47.276 192.756 -42.344 182.386 -43.176 173.945 C -48.544 165.121 -57.161 160.068 -54.256 143.989 C -54.873 127.477 -51.309 120.849 -68.723 103.844 C -85.115 86.799 -71.439 76.3 -93.294 53.574 Q -115.15 30.848 -132.099 57.877 L -131.361 69.09 L -132.099 57.877 C -131.714 56.537 -131.921 54.935 -132.704 53.323 L -131.361 69.09 L -120.117 201.12 L -131.361 69.09 L -120.117 201.12 Z " fill="rgb(255,153,0)"/><g><path d="M -159.506 181.16 L -78.694 181.16 C -56.323 181.16 -38.16 199.323 -38.16 221.694 L -38.16 385.226 C -38.16 407.597 -56.323 425.76 -78.694 425.76 L -159.506 425.76 C -181.877 425.76 -200.04 407.597 -200.04 385.226 L -200.04 221.694 C -200.04 199.323 -181.877 181.16 -159.506 181.16 Z" style="stroke:none;fill:#140388;stroke-miterlimit:10;"/><path d=" M -93.733 181.06 C -93.724 181.34 -93.721 181.621 -93.721 181.904 C -93.721 199.874 -105.909 214.464 -120.922 214.464 C -135.935 214.464 -148.123 199.874 -148.123 181.904 C -148.123 181.621 -148.12 181.34 -148.111 181.06 L -93.733 181.06 L -93.733 181.06 Z " fill="rgb(236,203,182)"/></g><path d=" M 49.883 213.538 C 52.419 203.501 60.962 197.194 68.949 199.463 C 76.935 201.732 81.36 211.724 78.824 221.761 C 76.288 231.799 67.744 238.105 59.758 235.836 C 51.771 233.567 47.346 223.575 49.883 213.538 Z " fill="rgb(236,203,182)"/><path d=" M -260.285 408.364 C -257.749 398.327 -249.205 392.02 -241.219 394.289 C -233.232 396.558 -228.807 406.55 -231.343 416.587 C -233.88 426.625 -242.423 432.931 -250.41 430.662 C -258.396 428.393 -262.821 418.401 -260.285 408.364 Z " fill="rgb(236,203,182)"/><path d=" M -252.472 396.516 L -231.11 401.811 L -196.431 316.497 L -198.096 214.414 L -252.472 396.516 Z " fill="rgb(20,3,136)"/><path d=" M -41.07 208.971 C -23.894 232.689 -8.216 258.584 5.746 264.352 C 7.826 265.212 11.094 265 15.526 263.69 L 50.274 221.327 L 70.041 233.021 Q 32.379 296.786 15.734 297.448 C -0.912 298.11 -24.841 290.608 -35.868 279.356 Q -46.896 268.103 -41.07 208.971 Z " fill="rgb(20,3,136)"/><ellipse vector-effect="non-scaling-stroke" cx="-120.13803110543273" cy="120.93540728641628" rx="42.446880968093524" ry="54.49830857159818" fill="rgb(236,203,182)"/><rect x="-134.391" y="158.51" width="30.587" height="30.283" transform="matrix(1,0,0,1,0,0)" fill="rgb(236,203,182)"/><g><path d="M 86.553 144.095 L 112.425 159.935 C 113.918 160.849 114.451 162.84 113.614 164.378 L 83.229 220.185 C 82.392 221.723 80.5 222.229 79.007 221.315 L 53.135 205.475 C 51.642 204.561 51.109 202.57 51.946 201.032 L 82.331 145.225 C 83.168 143.687 85.06 143.181 86.553 144.095 Z" style="stroke:none;fill:#A2A2A2;stroke-miterlimit:10;"/><path d="M 95.874 154.281 L 100.576 157.16 C 101.07 157.463 101.246 158.121 100.969 158.63 L 100.922 158.716 C 100.645 159.224 100.02 159.392 99.526 159.089 L 94.824 156.21 C 94.33 155.907 94.154 155.249 94.431 154.74 L 94.478 154.654 C 94.755 154.146 95.38 153.978 95.874 154.281 Z" style="stroke:none;fill:#575757;stroke-miterlimit:10;"/><path d=" M 89.82 151.504 C 90.146 150.905 90.841 150.682 91.37 151.006 C 91.899 151.33 92.064 152.08 91.738 152.679 C 91.412 153.277 90.718 153.5 90.188 153.176 C 89.659 152.852 89.494 152.103 89.82 151.504 Z " fill="rgb(87,87,87)"/><path d=" M 66.003 207.788 C 66.824 206.28 68.573 205.718 69.907 206.534 C 71.24 207.35 71.655 209.238 70.834 210.746 C 70.013 212.254 68.264 212.816 66.931 212 C 65.598 211.184 65.182 209.296 66.003 207.788 Z " fill="rgb(87,87,87)"/><rect x="66.98" y="155.811" width="32.065" height="52.61" transform="matrix(0.853,0.522,-0.479,0.879,99.411,-21.38)" fill="rgb(87,87,87)"/></g><ellipse vector-effect="non-scaling-stroke" cx="-123.6802107754945" cy="117.19316752771411" rx="3.680210775494416" ry="3.902502113098464" fill="rgb(87,87,87)"/><ellipse vector-effect="non-scaling-stroke" cx="-93.3901892529187" cy="117.20615217131623" rx="3.6141475862519314" ry="3.8324485886281963" fill="rgb(87,87,87)"/><path d=" M -117.899 145.459 C -117.399 150.738 -113.193 154.873 -108.084 154.873 C -102.974 154.873 -98.768 150.738 -98.268 145.459 L -117.899 145.459 L -117.899 145.459 Z " fill="rgb(251,149,149)"/><g><path d=" M -100.94 132.367 C -101.122 134.605 -102.648 136.357 -104.503 136.357 C -106.358 136.357 -107.885 134.605 -108.066 132.367 L -100.94 132.367 L -100.94 132.367 Z " fill="rgb(217,164,133)"/></g><path d=" M -169.448 127.734 Q -127.833 96.844 -121.175 80.958 Q -114.517 65.072 -105.916 65.66 L -136.989 56.246 Q -162.79 80.075 -166.951 95.961 Q -171.112 111.848 -169.448 127.734 Z " fill="rgb(255,153,0)"/><rect x="959.534" y="195.565" width="130.635" height="29.786" transform="matrix(-1,0,0,-1,2049.703,420.917)" fill="rgb(185,185,185)"/><rect x="889.375" y="274.954" width="201.102" height="29.429" transform="matrix(-1,0,0,-1,1979.852,579.337)" fill="rgb(185,185,185)"/><path d=" M 1042.477 307.728 C 1042.215 307.739 1041.953 307.744 1041.69 307.747" fill="rgb(156,175,185)"/><path d=" M 1089.116 195.556 C 1118.039 195.622 1141.5 219.983 1141.5 249.98 C 1141.5 279.636 1118.569 303.784 1090.098 304.387" fill="rgb(185,185,185)"/><path d=" M 1088.777 274.95 C 1075.703 274.95 1065.088 263.836 1065.088 250.147 C 1065.088 236.457 1075.703 225.343 1088.777 225.343 C 1101.851 225.343 1112.466 236.457 1112.466 250.147 C 1112.466 263.828 1101.864 274.936 1088.801 274.949" fill="rgb(255,255,255)"/><path d=" M 1041.935 275.884 C 1041.927 275.885 1041.919 275.885 1041.91 275.885" fill="rgb(255,255,255)"/><g clip-path="url(#_clipPath_cuo93MQFep8LVdFPz6AAeaUOIHZFjbnc)"><text transform="matrix(1,0,0,1,919,296.884)" style="font-family:'Open Sans';font-weight:700;font-size:20px;font-style:normal;fill:#000000;stroke:none;">Hämtar tidtabell</text></g><defs><clipPath id="_clipPath_cuo93MQFep8LVdFPz6AAeaUOIHZFjbnc"><rect x="0" y="0" width="169" height="27.236" transform="matrix(1,0,0,1,919,275.507)"/></clipPath></defs></g></svg>
